src/assets/beer-case-icon.svg

<svg width="26" height="26" class="iconPrimary" viewBox="0 0 26 26" fill="none" xmlns="http://www.w3.org/2000/svg">
<path d="M22.8341 12.5938H3.16595C2.76364 12.5938 2.4375 12.9315 2.4375 13.3482V17.1205C2.4375 17.5372 2.76364 17.875 3.16595 17.875H22.8341C23.2364 17.875 23.5625 17.5372 23.5625 17.1205V13.3482C23.5625 12.9315 23.2364 12.5938 22.8341 12.5938Z" fill="currentColor"/>
<path d="M5.07813 16.25C4.87725 16.25 4.68089 16.1904 4.51387 16.0788C4.34686 15.9672 4.21668 15.8086 4.13981 15.623C4.06294 15.4375 4.04283 15.2332 4.08202 15.0362C4.1212 14.8392 4.21793 14.6583 4.35997 14.5162C4.50201 14.3742 4.68297 14.2775 4.87999 14.2383C5.077 14.1991 5.28121 14.2192 5.46679 14.2961C5.65237 14.3729 5.81099 14.5031 5.92259 14.6701C6.03418 14.8371 6.09375 15.0335 6.09375 15.2344C6.09375 15.5037 5.98675 15.7621 5.79628 15.9525C5.60581 16.143 5.34749 16.25 5.07813 16.25ZM5.07813 14.8958C5.01117 14.8958 4.94571 14.9157 4.89004 14.9529C4.83437 14.9901 4.79098 15.043 4.76535 15.1048C4.73973 15.1667 4.73303 15.2348 4.74609 15.3004C4.75915 15.3661 4.79139 15.4264 4.83874 15.4738C4.88609 15.5211 4.94641 15.5533 5.01208 15.5664C5.07775 15.5795 5.14582 15.5728 5.20768 15.5471C5.26954 15.5215 5.32241 15.4781 5.35961 15.4225C5.39681 15.3668 5.41667 15.3013 5.41667 15.2344C5.41667 15.1446 5.381 15.0585 5.31751 14.995C5.25402 14.9315 5.16791 14.8958 5.07813 14.8958Z" fill="#141414"/>
<path d="M20.9219 16.25C20.721 16.25 20.5246 16.1904 20.3576 16.0788C20.1906 15.9672 20.0604 15.8086 19.9836 15.623C19.9067 15.4375 19.8866 15.2332 19.9258 15.0362C19.965 14.8392 20.0617 14.6583 20.2037 14.5162C20.3458 14.3742 20.5267 14.2775 20.7237 14.2383C20.9207 14.1991 21.125 14.2192 21.3105 14.2961C21.4961 14.3729 21.6547 14.5031 21.7663 14.6701C21.8779 14.8371 21.9375 15.0335 21.9375 15.2344C21.9375 15.5037 21.8305 15.7621 21.64 15.9525C21.4496 16.143 21.1912 16.25 20.9219 16.25ZM20.9219 14.8958C20.8549 14.8958 20.7895 14.9157 20.7338 14.9529C20.6781 14.9901 20.6347 15.043 20.6091 15.1048C20.5835 15.1667 20.5768 15.2348 20.5898 15.3004C20.6029 15.3661 20.6351 15.4264 20.6825 15.4738C20.7298 15.5211 20.7902 15.5533 20.8558 15.5664C20.9215 15.5795 20.9896 15.5728 21.0514 15.5471C21.1133 15.5215 21.1662 15.4781 21.2034 15.4225C21.2406 15.3668 21.2604 15.3013 21.2604 15.2344C21.2604 15.1446 21.2247 15.0585 21.1613 14.995C21.0978 14.9315 21.0117 14.8958 20.9219 14.8958Z" fill="#141414"/>
<path d="M22.8341 18.2812H3.16595C2.76364 18.2812 2.4375 18.619 2.4375 19.0357V22.808C2.4375 23.2247 2.76364 23.5625 3.16595 23.5625H22.8341C23.2364 23.5625 23.5625 23.2247 23.5625 22.808V19.0357C23.5625 18.619 23.2364 18.2812 22.8341 18.2812Z" fill="currentColor"/>
<path d="M5.07813 21.9375C4.87725 21.9375 4.68089 21.8779 4.51387 21.7663C4.34686 21.6547 4.21668 21.4961 4.13981 21.3105C4.06294 21.125 4.04283 20.9207 4.08202 20.7237C4.1212 20.5267 4.21793 20.3458 4.35997 20.2037C4.50201 20.0617 4.68297 19.965 4.87999 19.9258C5.077 19.8866 5.28121 19.9067 5.46679 19.9836C5.65237 20.0604 5.81099 20.1906 5.92259 20.3576C6.03418 20.5246 6.09375 20.721 6.09375 20.9219C6.09375 21.1912 5.98675 21.4496 5.79628 21.64C5.60581 21.8305 5.34749 21.9375 5.07813 21.9375ZM5.07813 20.5833C5.01117 20.5833 4.94571 20.6032 4.89004 20.6404C4.83437 20.6776 4.79098 20.7305 4.76535 20.7923C4.73973 20.8542 4.73303 20.9223 4.74609 20.9879C4.75915 21.0536 4.79139 21.1139 4.83874 21.1613C4.88609 21.2086 4.94641 21.2408 5.01208 21.2539C5.07775 21.267 5.14582 21.2603 5.20768 21.2346C5.26954 21.209 5.32241 21.1656 5.35961 21.11C5.39681 21.0543 5.41667 20.9888 5.41667 20.9219C5.41667 20.8321 5.381 20.746 5.31751 20.6825C5.25402 20.619 5.16791 20.5833 5.07813 20.5833Z" fill="#141414"/>
<path d="M20.9219 21.9375C20.721 21.9375 20.5246 21.8779 20.3576 21.7663C20.1906 21.6547 20.0604 21.4961 19.9836 21.3105C19.9067 21.125 19.8866 20.9207 19.9258 20.7237C19.965 20.5267 20.0617 20.3458 20.2037 20.2037C20.3458 20.0617 20.5267 19.965 20.7237 19.9258C20.9207 19.8866 21.125 19.9067 21.3105 19.9836C21.4961 20.0604 21.6547 20.1906 21.7663 20.3576C21.8779 20.5246 21.9375 20.721 21.9375 20.9219C21.9375 21.1912 21.8305 21.4496 21.64 21.64C21.4496 21.8305 21.1912 21.9375 20.9219 21.9375ZM20.9219 20.5833C20.8549 20.5833 20.7895 20.6032 20.7338 20.6404C20.6781 20.6776 20.6347 20.7305 20.6091 20.7923C20.5835 20.8542 20.5768 20.9223 20.5898 20.9879C20.6029 21.0536 20.6351 21.1139 20.6825 21.1613C20.7298 21.2086 20.7902 21.2408 20.8558 21.2539C20.9215 21.267 20.9896 21.2603 21.0514 21.2346C21.1133 21.209 21.1662 21.1656 21.2034 21.11C21.2406 21.0543 21.2604 20.9888 21.2604 20.9219C21.2604 20.8321 21.2247 20.746 21.1613 20.6825C21.0978 20.619 21.0117 20.5833 20.9219 20.5833Z" fill="#141414"/>
<path d="M3.19221 11.7813C3.0998 11.7813 3.01117 11.7427 2.94583 11.674C2.88049 11.6054 2.84378 11.5123 2.84378 11.4152C2.84162 10.9566 2.96568 10.507 3.20101 10.1208C3.43635 9.73447 3.77293 9.42787 4.17025 9.23786C4.13579 8.91555 4.1195 8.59139 4.12147 8.26706C4.22008 7.09007 4.37709 5.91928 4.59185 4.75947C4.61057 4.66596 4.66334 4.58386 4.73891 4.53068C4.81447 4.4775 4.90682 4.45747 4.99625 4.47487C5.08568 4.49226 5.16509 4.5457 5.21752 4.62378C5.26995 4.70185 5.29125 4.79837 5.27686 4.89271C5.27233 4.9187 4.81833 7.50456 4.81833 8.26706C4.80975 8.64136 4.83577 9.01564 4.89603 9.38465C4.9148 9.47212 4.90235 9.56379 4.86106 9.64227C4.81976 9.72074 4.75248 9.78056 4.67199 9.81038C4.34569 9.91707 4.06017 10.1301 3.85677 10.4186C3.65338 10.7071 3.54266 11.0562 3.54064 11.4152C3.54064 11.5123 3.50393 11.6054 3.43858 11.674C3.37324 11.7427 3.28462 11.7813 3.19221 11.7813Z" fill="#EFEFEF"/>
<path d="M8.99529 11.7813C8.90288 11.7813 8.81426 11.7427 8.74892 11.674C8.68357 11.6054 8.64686 11.5123 8.64686 11.4152C8.64484 11.0562 8.53412 10.7071 8.33073 10.4186C8.12733 10.1301 7.84181 9.91707 7.51551 9.81038C7.43479 9.78047 7.36737 9.72039 7.32612 9.6416C7.28486 9.56281 7.27265 9.47083 7.29182 9.38318C7.35176 9.01463 7.37767 8.64085 7.36917 8.26706C7.36917 7.50456 6.91621 4.9187 6.91064 4.89271C6.89625 4.79837 6.91755 4.70185 6.96998 4.62378C7.02241 4.5457 7.10182 4.49226 7.19125 4.47487C7.28068 4.45747 7.37303 4.4775 7.44859 4.53068C7.52416 4.58386 7.57693 4.66596 7.59565 4.75947C7.81041 5.91928 7.96742 7.09007 8.06603 8.26706C8.068 8.59139 8.05171 8.91555 8.01725 9.23786C8.41457 9.42787 8.75115 9.73447 8.98649 10.1208C9.22182 10.507 9.34588 10.9566 9.34372 11.4152C9.34372 11.5123 9.30701 11.6054 9.24167 11.674C9.17633 11.7427 9.0877 11.7813 8.99529 11.7813Z" fill="#EFEFEF"/>
<path d="M17.0047 11.7813C16.9123 11.7813 16.8237 11.7427 16.7583 11.674C16.693 11.6054 16.6563 11.5123 16.6563 11.4152C16.6541 10.9566 16.7782 10.507 17.0135 10.1208C17.2488 9.73447 17.5854 9.42787 17.9827 9.23786C17.9483 8.91555 17.932 8.59139 17.934 8.26706C18.0326 7.09007 18.1896 5.91928 18.4043 4.75947C18.4231 4.66596 18.4758 4.58386 18.5514 4.53068C18.627 4.4775 18.7193 4.45747 18.8088 4.47487C18.8982 4.49226 18.9776 4.5457 19.03 4.62378C19.0825 4.70185 19.1037 4.79837 19.0894 4.89271C19.0848 4.9187 18.6308 7.50456 18.6308 8.26706C18.6223 8.64136 18.6483 9.01564 18.7085 9.38465C18.7273 9.47212 18.7149 9.56379 18.6736 9.64227C18.6323 9.72074 18.565 9.78056 18.4845 9.81038C18.1582 9.91707 17.8727 10.1301 17.6693 10.4186C17.4659 10.7071 17.3552 11.0562 17.3531 11.4152C17.3531 11.5123 17.3164 11.6054 17.2511 11.674C17.1857 11.7427 17.0971 11.7813 17.0047 11.7813Z" fill="#EFEFEF"/>
<path d="M22.8078 11.7813C22.7154 11.7813 22.6268 11.7427 22.5614 11.674C22.4961 11.6054 22.4594 11.5123 22.4594 11.4152C22.4573 11.0562 22.3466 10.7071 22.1432 10.4186C21.9398 10.1301 21.6543 9.91707 21.328 9.81038C21.2473 9.78047 21.1799 9.72039 21.1386 9.6416C21.0974 9.56281 21.0852 9.47083 21.1043 9.38318C21.1643 9.01463 21.1902 8.64085 21.1817 8.26706C21.1817 7.50456 20.7287 4.9187 20.7231 4.89271C20.7088 4.79837 20.73 4.70185 20.7825 4.62378C20.8349 4.5457 20.9143 4.49226 21.0037 4.47487C21.0932 4.45747 21.1855 4.4775 21.2611 4.53068C21.3367 4.58386 21.3894 4.66596 21.4082 4.75947C21.6229 5.91928 21.7799 7.09007 21.8785 8.26706C21.8805 8.59139 21.8642 8.91555 21.8298 9.23786C22.2271 9.42787 22.5637 9.73447 22.799 10.1208C23.0343 10.507 23.1584 10.9566 23.1562 11.4152C23.1562 11.5123 23.1195 11.6054 23.0542 11.674C22.9888 11.7427 22.9002 11.7813 22.8078 11.7813Z" fill="#EFEFEF"/>
<path d="M10.098 11.7812C10.0057 11.7812 9.91721 11.7428 9.85195 11.6743C9.78669 11.6058 9.75003 11.5129 9.75003 11.4161C9.74788 10.9585 9.87178 10.5101 10.1068 10.1247C10.3419 9.73934 10.678 9.43347 11.0748 9.24391C11.0404 8.92237 11.0241 8.59898 11.0261 8.27543C11.1246 7.10123 11.2814 5.93322 11.4959 4.77618C11.5032 4.72809 11.5197 4.68202 11.5442 4.6407C11.5688 4.59937 11.601 4.56362 11.6389 4.53554C11.6768 4.50747 11.7197 4.48763 11.765 4.47721C11.8104 4.46679 11.8572 4.46599 11.9029 4.47485C11.9485 4.48372 11.992 4.50207 12.0307 4.52884C12.0695 4.5556 12.1028 4.59024 12.1286 4.6307C12.1545 4.67116 12.1723 4.71664 12.1811 4.76445C12.19 4.81226 12.1896 4.86145 12.18 4.9091C12.1755 4.93503 11.7221 7.51473 11.7221 8.27543C11.7135 8.64883 11.7395 9.02222 11.7997 9.39035C11.8184 9.47762 11.806 9.56907 11.7648 9.64736C11.7235 9.72564 11.6563 9.78532 11.5759 9.81507C11.25 9.92151 10.9649 10.134 10.7617 10.4219C10.5586 10.7097 10.448 11.0579 10.446 11.4161C10.446 11.5129 10.4093 11.6058 10.3441 11.6743C10.2788 11.7428 10.1903 11.7812 10.098 11.7812Z" fill="#EFEFEF"/>
<path d="M15.902 11.7812C15.8097 11.7812 15.7212 11.7428 15.6559 11.6743C15.5907 11.6058 15.554 11.5129 15.554 11.4161C15.552 11.0579 15.4414 10.7097 15.2383 10.4219C15.0351 10.134 14.75 9.92151 14.4241 9.81507C14.3434 9.78523 14.2761 9.72529 14.2349 9.64669C14.1937 9.56809 14.1815 9.47632 14.2007 9.38889C14.2605 9.02121 14.2864 8.64833 14.2779 8.27543C14.2779 7.51473 13.8255 4.93503 13.82 4.9091C13.8104 4.86145 13.81 4.81226 13.8189 4.76445C13.8277 4.71664 13.8455 4.67116 13.8714 4.6307C13.8972 4.59024 13.9305 4.5556 13.9693 4.52884C14.008 4.50207 14.0515 4.48372 14.0971 4.47485C14.1428 4.46599 14.1896 4.46679 14.235 4.47721C14.2803 4.48763 14.3232 4.50747 14.3611 4.53554C14.399 4.56362 14.4312 4.59937 14.4558 4.6407C14.4803 4.68202 14.4968 4.72809 14.5041 4.77618C14.7186 5.93322 14.8754 7.10123 14.9739 8.27543C14.9759 8.59898 14.9596 8.92237 14.9252 9.24391C15.322 9.43347 15.6581 9.73934 15.8932 10.1247C16.1282 10.5101 16.2521 10.9585 16.25 11.4161C16.25 11.5129 16.2133 11.6058 16.148 11.6743C16.0828 11.7428 15.9943 11.7812 15.902 11.7812Z" fill="#EFEFEF"/>
<path d="M6.90625 2.03125H5.28125C5.06576 2.03125 4.8591 2.11685 4.70673 2.26923C4.55435 2.4216 4.46875 2.62826 4.46875 2.84375C4.46875 3.05924 4.55435 3.2659 4.70673 3.41827C4.8591 3.57065 5.06576 3.65625 5.28125 3.65625H6.90625C7.12174 3.65625 7.3284 3.57065 7.48077 3.41827C7.63315 3.2659 7.71875 3.05924 7.71875 2.84375C7.71875 2.62826 7.63315 2.4216 7.48077 2.26923C7.3284 2.11685 7.12174 2.03125 6.90625 2.03125Z" fill="currentColor"/>
<path d="M13.8125 2.03125H12.1875C11.972 2.03125 11.7653 2.11685 11.613 2.26923C11.4606 2.4216 11.375 2.62826 11.375 2.84375C11.375 3.05924 11.4606 3.2659 11.613 3.41827C11.7653 3.57065 11.972 3.65625 12.1875 3.65625H13.8125C14.028 3.65625 14.2347 3.57065 14.387 3.41827C14.5394 3.2659 14.625 3.05924 14.625 2.84375C14.625 2.62826 14.5394 2.4216 14.387 2.26923C14.2347 2.11685 14.028 2.03125 13.8125 2.03125Z" fill="currentColor"/>
<path d="M20.7188 2.03125H19.0938C18.8783 2.03125 18.6716 2.11685 18.5192 2.26923C18.3669 2.4216 18.2812 2.62826 18.2812 2.84375C18.2812 3.05924 18.3669 3.2659 18.5192 3.41827C18.6716 3.57065 18.8783 3.65625 19.0938 3.65625H20.7188C20.9342 3.65625 21.1409 3.57065 21.2933 3.41827C21.4456 3.2659 21.5312 3.05924 21.5312 2.84375C21.5312 2.62826 21.4456 2.4216 21.2933 2.26923C21.1409 2.11685 20.9342 2.03125 20.7188 2.03125Z" fill="currentColor"/>
</svg>

<svg xmlns="http://www.w3.org/2000/svg" width="26" height="26" fill="none" class="iconPrimary" viewBox="0 0 26 26">
    <path fill="currentColor" d="M22.834 12.594H3.166a.742.742 0 0 0-.728.754v3.772c0 .417.326.755.728.755h19.668a.742.742 0 0 0 .729-.755v-3.772a.742.742 0 0 0-.729-.754Z"/>
    <path fill="#141414" d="M5.078 16.25a1.016 1.016 0 1 1 0-2.031 1.016 1.016 0 0 1 0 2.031Zm0-1.354a.339.339 0 1 0 0 .677.339.339 0 0 0 0-.677ZM20.922 16.25a1.016 1.016 0 1 1 0-2.031 1.016 1.016 0 0 1 0 2.031Zm0-1.354a.339.339 0 1 0 0 .677.339.339 0 0 0 0-.677Z"/>
    <path fill="currentColor" d="M22.834 18.281H3.166a.742.742 0 0 0-.728.755v3.772c0 .417.326.755.728.755h19.668a.742.742 0 0 0 .729-.755v-3.772a.742.742 0 0 0-.729-.755Z"/>
    <path fill="#141414" d="M5.078 21.938a1.016 1.016 0 1 1 0-2.032 1.016 1.016 0 0 1 0 2.032Zm0-1.355a.339.339 0 1 0 0 .677.339.339 0 0 0 0-.677ZM20.922 21.938a1.016 1.016 0 1 1 0-2.032 1.016 1.016 0 0 1 0 2.032Zm0-1.355a.339.339 0 1 0 0 .677.339.339 0 0 0 0-.677Z"/>
    <path fill="#EFEFEF" d="M3.192 11.781a.34.34 0 0 1-.246-.107.375.375 0 0 1-.102-.259 2.468 2.468 0 0 1 .357-1.294c.235-.387.572-.693.97-.883a8.639 8.639 0 0 1-.05-.97c.1-1.178.256-2.349.47-3.509a.367.367 0 0 1 .148-.228.335.335 0 0 1 .257-.056c.09.017.17.07.222.149a.38.38 0 0 1 .059.269c-.005.026-.459 2.612-.459 3.374-.008.374.018.749.078 1.118a.382.382 0 0 1-.035.257.354.354 0 0 1-.189.168c-.326.107-.612.32-.815.609a1.749 1.749 0 0 0-.316.996c0 .097-.037.19-.102.259a.34.34 0 0 1-.247.107ZM8.995 11.781a.34.34 0 0 1-.246-.107.375.375 0 0 1-.102-.259 1.749 1.749 0 0 0-.316-.996 1.614 1.614 0 0 0-.815-.609.354.354 0 0 1-.19-.168.382.382 0 0 1-.034-.259c.06-.368.086-.742.077-1.116 0-.762-.453-3.348-.458-3.374a.38.38 0 0 1 .059-.27.347.347 0 0 1 .221-.148.335.335 0 0 1 .258.056.367.367 0 0 1 .147.228c.214 1.16.371 2.331.47 3.508.002.324-.014.649-.049.97.398.19.734.497.97.884.235.386.359.836.357 1.294 0 .097-.037.19-.102.259a.34.34 0 0 1-.247.107ZM17.005 11.781a.34.34 0 0 1-.247-.107.376.376 0 0 1-.102-.259 2.468 2.468 0 0 1 .358-1.294c.235-.387.571-.693.969-.883a8.646 8.646 0 0 1-.049-.97c.099-1.178.256-2.349.47-3.509a.367.367 0 0 1 .147-.228.335.335 0 0 1 .258-.056c.09.017.169.07.221.149a.38.38 0 0 1 .06.269c-.005.026-.46 2.612-.46 3.374-.008.374.018.749.079 1.118a.382.382 0 0 1-.035.257.354.354 0 0 1-.19.168c-.326.107-.611.32-.815.609a1.75 1.75 0 0 0-.316.996c0 .097-.037.19-.102.259a.34.34 0 0 1-.246.107ZM22.808 11.781a.34.34 0 0 1-.247-.107.376.376 0 0 1-.102-.259 1.75 1.75 0 0 0-.316-.996 1.614 1.614 0 0 0-.815-.609.354.354 0 0 1-.19-.168.383.383 0 0 1-.034-.259c.06-.368.086-.742.078-1.116 0-.762-.453-3.348-.459-3.374a.38.38 0 0 1 .06-.27.347.347 0 0 1 .22-.148.335.335 0 0 1 .258.056.367.367 0 0 1 .147.228c.215 1.16.372 2.331.47 3.508.003.324-.014.649-.048.97.397.19.734.497.969.884.235.386.36.836.357 1.294 0 .097-.037.19-.102.259a.34.34 0 0 1-.246.107ZM10.098 11.781a.34.34 0 0 1-.246-.107.375.375 0 0 1-.102-.258 2.46 2.46 0 0 1 .357-1.291c.235-.386.571-.692.968-.881a8.605 8.605 0 0 1-.049-.969 35.46 35.46 0 0 1 .47-3.499.377.377 0 0 1 .143-.24.34.34 0 0 1 .264-.061.338.338 0 0 1 .226.156.373.373 0 0 1 .051.278c-.005.026-.458 2.606-.458 3.366-.008.374.018.747.078 1.115a.382.382 0 0 1-.035.257.353.353 0 0 1-.19.168 1.612 1.612 0 0 0-.813.607 1.743 1.743 0 0 0-.316.994c0 .097-.037.19-.102.258a.34.34 0 0 1-.246.107ZM15.902 11.781a.34.34 0 0 1-.246-.107.375.375 0 0 1-.102-.258 1.743 1.743 0 0 0-.316-.994 1.612 1.612 0 0 0-.814-.607.353.353 0 0 1-.19-.168.38.38 0 0 1-.033-.258c.06-.368.085-.74.077-1.114 0-.76-.453-3.34-.458-3.366a.38.38 0 0 1 .051-.278.356.356 0 0 1 .226-.156.332.332 0 0 1 .264.06.36.36 0 0 1 .143.241 35.46 35.46 0 0 1 .47 3.5c.002.323-.014.646-.049.968.397.19.733.495.968.88.235.386.36.835.357 1.292 0 .097-.037.19-.102.258a.34.34 0 0 1-.246.107Z"/>
    <path fill="currentColor" d="M6.906 2.031H5.281a.812.812 0 1 0 0 1.625h1.625a.812.812 0 1 0 0-1.625ZM13.813 2.031h-1.626a.812.812 0 1 0 0 1.625h1.626a.812.812 0 1 0 0-1.625ZM20.719 2.031h-1.625a.813.813 0 0 0 0 1.625h1.625a.813.813 0 0 0 0-1.625Z"/>
</svg>
